X: 38121
T: Sport Of The Chase, The
R: slip jig
M: 9/8
K: Gmajor
G3 B2G BdB|GFG g2 d BdB|C2 C E2C EGE|D2D F2D FAF:|
G2G g2d BdB|GFG g2d BdB|c2e ece ege|d^cd f2d faf:|
g2g b2g dBd|gfg b2g dBd|c2e ece ege|d^cd f2d faf:|
gdB gdB gdB|gdB gdB gdB|c2e ece ege|d^cd f2d faf|
gdB gdB gdB|gdB gdB gdB|c2e ece efg|[M:6/8] fed cBA|
M:9/8
G3 B2G BdB|G3 B2G BdB|A2B c2 A FDF|A2B c2 A FDF|
G3 B2G BdB|G3 B2G BdB|A2B c2 A FDF|GAB cBA G3:|
K:D
d2f fef fef|d2f fef fef|e2g gfg gfg|e2g gfg gfg|
d2f fef fef|d2f fef fef|e2z z2 A BAG|FGA BAG F3:|
AFD DFA Bcd|[M:6/8]efg f2e|[M:9/8] d2B AFD DFA|Bcd AFD E2D:|
f2d AFA (4defa|f2d AFA (4defa|g2e cAc ecA|def gec d2 e:|

